X:1
T: Colonel Call's Strathspey
C:Alexander Walker
R:Strathspey
Q: 128
K:A
M:4/4
L:1/16
|:c2|AA3 c3B AF3 F3A|EF3 A3C B,6 C2|AA3 c3B AF3 F3c|d3f e3g a2A2 A3c|
A3A c3B A3F F3A|EC3 E3C B,6 d2|c3e B3c A3B F3A|EFGA B3G A6f2|
e3c a3f e2c2 c2f2|d3B c3A BF3 F3A|E3F A3B c3B c3f|ec3 B3c A6f2|
e3c a3f ec3 c3f|d3f c3a bB3 B3c|A3c F3A E3A C3A,|D3B, E2G2 A6:|
